x-pack/solutions/search/plugins/enterprise_search/public/applications/enterprise_search_overview/assets/search_applications_logo.svg

<svg width="32" height="32" viewBox="0 0 32 32" fill="none" xmlns="http://www.w3.org/2000/svg">
<path fill-rule="evenodd" clip-rule="evenodd" d="M5.23639 18.2596C5.23639 20.8406 6.05567 23.2344 7.44841 25.1954L15.6216 13.5993L20.6731 18.0167L26.2668 10.2631C24.0596 7.7936 20.8488 6.23636 17.28 6.23636C10.6383 6.23636 5.23639 11.6298 5.23639 18.2596ZM16.0248 18.0167L9.45204 27.388C11.5586 29.1903 14.294 30.2804 17.28 30.2804C20.022 30.2804 22.5526 29.3611 24.5791 27.8153L28.6019 31.2545L32 27.4747L27.8839 23.955C28.8021 22.2589 29.3236 20.3188 29.3236 18.2596C29.3236 16.3029 28.853 14.4538 28.0189 12.8194L21.0686 22.4369L16.0248 18.0167Z" fill="#1BA9F5"/>
<path d="M30.7178 4.09337L20.6731 18.0167L15.6216 13.5993L3.23813 31.169C1.38914 30.7839 0 29.1451 0 27.1818V5.07273C0 2.82342 1.82342 1 4.07273 1H26.7636C28.6753 1 30.2794 2.31711 30.7178 4.09337Z" fill="#FEC514"/>
<path d="M7.44841 25.1954C6.05567 23.2344 5.23639 20.8406 5.23639 18.2596C5.23639 11.6298 10.6383 6.23636 17.28 6.23636C20.8488 6.23636 24.0596 7.7936 26.2668 10.2631L20.6731 18.0167L15.6216 13.5993L7.44841 25.1954Z" fill="#343741"/>
</svg>

<svg xmlns="http://www.w3.org/2000/svg" width="32" height="32" fill="none"><path fill="#1BA9F5" fill-rule="evenodd" d="M5.236 18.26c0 2.58.82 4.974 2.212 6.935L15.622 13.6l5.051 4.418 5.594-7.754a12.03 12.03 0 0 0-8.987-4.027c-6.642 0-12.044 5.394-12.044 12.024m10.789-.243-6.573 9.371a12 12 0 0 0 7.828 2.892c2.742 0 5.273-.919 7.3-2.465l4.022 3.44L32 27.475l-4.116-3.52a11.9 11.9 0 0 0 1.44-5.695c0-1.957-.471-3.806-1.305-5.44l-6.95 9.617z" clip-rule="evenodd"/><path fill="#FEC514" d="M30.718 4.093 20.673 18.017l-5.051-4.418L3.238 31.17A4.074 4.074 0 0 1 0 27.182V5.072A4.073 4.073 0 0 1 4.073 1h22.69a4.074 4.074 0 0 1 3.955 3.093"/><path fill="#343741" d="M7.448 25.195a11.94 11.94 0 0 1-2.212-6.935c0-6.63 5.402-12.024 12.044-12.024 3.569 0 6.78 1.558 8.987 4.027l-5.594 7.754-5.051-4.418z"/></svg>
